32x32/apps/appimagekit-filmulator-gui.svg

<svg xmlns="http://www.w3.org/2000/svg" width="32" height="32" version="1">
 <rect style="opacity:0.2" width="29" height="26" x="2" y="4" rx="1.45" ry="1.444"/>
 <rect style="fill:#ff670b" width="29" height="26" x="2" y="3" rx="1.45" ry="1.444"/>
 <rect style="fill:#5e473a" width="29" height="16" x="2" y="8"/>
 <path style="fill:#f4f4f7" d="M 2,5 V 8 H 4 V 5 Z"/>
 <path style="opacity:0.2" d="M 4,11 V 23 H 5 V 17 H 9 V 16 H 5 v -4 h 5 v -1 z m 8.503906,0 c -0.142394,0 -0.260334,0.04167 -0.357422,0.125 C 12.049397,11.202381 12,11.327381 12,11.5 c 0,0.172619 0.0494,0.301432 0.146484,0.384766 C 12.243572,11.962147 12.361512,12 12.503906,12 c 0.12945,0 0.242757,-0.03785 0.339844,-0.115234 C 12.94731,11.801432 13,11.672619 13,11.5 13,11.327381 12.94731,11.202381 12.84375,11.125 12.746663,11.041667 12.633356,11 12.503906,11 Z M 15,11 v 12 h 1 V 11 Z m -3,3 v 9 h 1 v -9 z m 9.533203,1 c -0.457737,0 -0.890724,0.103465 -1.300781,0.308594 -0.40052,0.19536 -0.720579,0.497946 -0.958984,0.908203 h -0.07227 L 19.015625,15.146484 H 18 V 23 h 1.058594 v -4.074219 c 0,-0.918193 0.147738,-1.620974 0.443359,-2.109375 0.295623,-0.4884 1.030303,-0.732422 1.802735,-0.732422 1.048981,0 1.673828,0.620792 1.673828,1.861328 V 23 h 1.042968 v -4.337891 c 0,-0.840049 0.257571,-1.478407 0.572266,-1.917968 0.32423,-0.43956 0.859693,-0.660157 1.603516,-0.660157 1.039445,0 1.757812,0.620792 1.757812,1.861328 V 23 H 29 V 17.886719 C 29,16.880614 28.784598,16.14855 28.355469,15.689453 27.92634,15.230356 27.27795,15 26.410156,15 c -0.505418,0 -0.97735,0.107369 -1.416015,0.322266 -0.438665,0.214896 -0.785492,0.546764 -1.042969,0.996093 h -0.07227 C 23.516531,15.439238 22.734763,15 21.533203,15 Z"/>
 <path style="fill:#f4f4f7" d="M 5,22 H 4 V 10 h 6 v 1 H 5 v 4 h 4 v 1 H 5 Z"/>
 <path style="fill:#f4f4f7" d="m 12.504854,10 q 0.194175,0 0.339806,0.125 Q 13,10.241071 13,10.5 13,10.758928 12.84466,10.883928 12.699029,11 12.504854,11 12.291262,11 12.145631,10.883928 12,10.758928 12,10.5 12,10.241071 12.145631,10.125 12.291262,10 12.504854,10 Z"/>
 <path style="fill:#f4f4f7" d="M 13,12.999999 V 22 h -1 v -9.000001 z"/>
 <path style="fill:#f4f4f7" d="M 16,22 H 15 V 10 h 1 z"/>
 <path style="fill:#f4f4f7" d="m 26.410923,14 c 0.867794,0 1.516255,0.229548 1.945384,0.688645 C 28.785436,15.147742 29,15.880343 29,16.886448 V 22 h -1.044 v -5.054945 c 0,-1.240537 -0.720196,-1.860805 -1.759641,-1.860805 -0.743823,0 -1.27785,0.21978 -1.60208,0.65934 C 24.279584,16.183151 24.022,16.822955 24.022,17.663004 V 22 h -1.044 v -5.054945 c 0,-1.240537 -0.624728,-1.860805 -1.673709,-1.860805 -0.772431,0 -1.506952,0.2442 -1.802575,0.7326 -0.295621,0.488401 -0.443432,1.191697 -0.443432,2.10989 V 22 H 18 v -7.853479 h 1.015604 l 0.185956,1.069597 h 0.07153 c 0.238405,-0.410257 0.557867,-0.713065 0.958387,-0.908425 C 20.641534,14.102564 21.075432,14 21.533169,14 c 1.20156,0 1.983528,0.439561 2.345903,1.318682 h 0.07153 C 24.208079,14.869353 24.55615,14.537241 24.994815,14.322345 25.43348,14.107448 25.905522,14 26.41094,14 Z"/>
 <path style="fill:#f4f4f7" d="M 7,5 V 8 H 9 V 5 Z"/>
 <path style="fill:#f4f4f7" d="m 12,5 v 3 h 2 V 5 Z"/>
 <path style="fill:#f4f4f7" d="m 17,5 v 3 h 2 V 5 Z"/>
 <path style="fill:#f4f4f7" d="m 22,5 v 3 h 2 V 5 Z"/>
 <path style="fill:#f4f4f7" d="m 27,5 v 3 h 2 V 5 Z"/>
 <path style="fill:#f4f4f7" d="m 2,24 v 3 h 2 v -3 z"/>
 <path style="fill:#f4f4f7" d="m 7,24 v 3 h 2 v -3 z"/>
 <path style="fill:#f4f4f7" d="m 12,24 v 3 h 2 v -3 z"/>
 <path style="fill:#f4f4f7" d="m 17,24 v 3 h 2 v -3 z"/>
 <path style="fill:#f4f4f7" d="m 22,24 v 3 h 2 v -3 z"/>
 <path style="fill:#f4f4f7" d="m 27,24 v 3 h 2 v -3 z"/>
 <path style="opacity:0.1" d="M 2 27 L 2 28 L 4 28 L 4 27 L 2 27 z M 7 27 L 7 28 L 9 28 L 9 27 L 7 27 z M 12 27 L 12 28 L 14 28 L 14 27 L 12 27 z M 17 27 L 17 28 L 19 28 L 19 27 L 17 27 z M 22 27 L 22 28 L 24 28 L 24 27 L 22 27 z M 27 27 L 27 28 L 29 28 L 29 27 L 27 27 z"/>
 <rect style="opacity:0.1" width="29" height="1" x="2" y="8"/>
 <rect style="opacity:0.1;fill:#f4f4f7" width="29" height="1" x="2" y="24"/>
 <path style="fill:#f4f4f7;opacity:0.2" d="M 3.4492188 3 C 2.6459187 3 2 3.6450902 2 4.4453125 L 2 5.4453125 C 2 4.6450902 2.6459187 4 3.4492188 4 L 29.550781 4 C 30.354081 4 31 4.6450902 31 5.4453125 L 31 4.4453125 C 31 3.6450902 30.354081 3 29.550781 3 L 3.4492188 3 z"/>
</svg>

<svg xmlns="http://www.w3.org/2000/svg" width="32" height="32" version="1"><rect style="opacity:.2" width="29" height="26" x="2" y="4" rx="1.45" ry="1.444"/><rect style="fill:#ff670b" width="29" height="26" x="2" y="3" rx="1.45" ry="1.444"/><path style="fill:#5e473a" d="M2 8h29v16H2z"/><path style="fill:#f4f4f7" d="M2 5v3h2V5z"/><path style="opacity:.2" d="M4 11v12h1v-6h4v-1H5v-4h5v-1zm8.504 0a.528.528 0 0 0-.358.125c-.097.077-.146.202-.146.375s.05.301.146.385a.553.553 0 0 0 .358.115c.13 0 .243-.038.34-.115.103-.084.156-.212.156-.385 0-.173-.053-.298-.156-.375a.506.506 0 0 0-.34-.125zM15 11v12h1V11zm-3 3v9h1v-9zm9.533 1c-.458 0-.89.103-1.3.309-.401.195-.721.498-.96.908h-.072l-.185-1.07H18V23h1.059v-4.074c0-.918.147-1.621.443-2.11.296-.488 1.03-.732 1.803-.732 1.049 0 1.674.62 1.674 1.861V23h1.042v-4.338c0-.84.258-1.478.573-1.918.324-.44.86-.66 1.603-.66 1.04 0 1.758.62 1.758 1.861V23H29v-5.113c0-1.006-.215-1.738-.645-2.198-.429-.459-1.077-.689-1.945-.689-.505 0-.977.107-1.416.322a2.408 2.408 0 0 0-1.043.996h-.072C23.517 15.44 22.735 15 21.533 15z"/><path style="fill:#f4f4f7" d="M5 22H4V10h6v1H5v4h4v1H5zM12.505 10q.194 0 .34.125.155.116.155.375t-.155.384q-.146.116-.34.116-.214 0-.36-.116Q12 10.759 12 10.5t.146-.375q.145-.125.359-.125zM13 13v9h-1v-9zM16 22h-1V10h1zM26.41 14c.869 0 1.517.23 1.946.689.43.459.644 1.191.644 2.197V22h-1.044v-5.055c0-1.24-.72-1.86-1.76-1.86-.743 0-1.277.219-1.602.659-.314.44-.572 1.079-.572 1.919V22h-1.044v-5.055c0-1.24-.625-1.86-1.674-1.86-.772 0-1.507.243-1.802.732-.296.488-.444 1.192-.444 2.11V22H18v-7.853h1.016l.186 1.07h.071c.238-.411.558-.714.958-.91.41-.204.844-.307 1.302-.307 1.202 0 1.984.44 2.346 1.319h.072a2.41 2.41 0 0 1 1.044-.997c.438-.215.91-.322 1.416-.322zM7 5v3h2V5zM12 5v3h2V5zM17 5v3h2V5zM22 5v3h2V5zM27 5v3h2V5zM2 24v3h2v-3zM7 24v3h2v-3zM12 24v3h2v-3zM17 24v3h2v-3zM22 24v3h2v-3zM27 24v3h2v-3z"/><path style="opacity:.1" d="M2 27v1h2v-1H2zm5 0v1h2v-1H7zm5 0v1h2v-1h-2zm5 0v1h2v-1h-2zm5 0v1h2v-1h-2zm5 0v1h2v-1h-2zM2 8h29v1H2z"/><path style="opacity:.1;fill:#f4f4f7" d="M2 24h29v1H2z"/><path style="fill:#f4f4f7;opacity:.2" d="M3.45 3C2.645 3 2 3.645 2 4.445v1C2 4.645 2.646 4 3.45 4h26.1c.804 0 1.45.645 1.45 1.445v-1C31 3.645 30.354 3 29.55 3H3.45z"/></svg>
